!!!!SEGMENT: pl-wumfc--r244--004_paderewski-ignacy-jan--6-melodies-op-18-vocal-piece.krn
!!!cenid: 18xx:3134
!!!COM: Paderewski, Ignacy Jan
!!!COM-rismID: pe30029943
!!!CDT: 1860/11/18-1941/06/29
!!!CNT: Polish
!!!GTL: 6 Mélodies op. 18
!!!OTL: [Vocal piece]
!!!PDT:
!!!AGN:
!!!SMS-siglum: PL-Wumfc
!!!SMS-shelfmark: R244
!!!SMS-shelfwork: 004 G
!!!SMS-variant:
!!!SMS-altvar:
!!!NIFC-rismSourceID: 1001155727
!!!NIFC-islandoraID: pl-wumfc:155
!!!URL-pdf-islandora: https://repozytorium.nifc.pl/islandora/object/pl-wumfc%3A155/datastream/PDF/view
!!!URL-scan: https://polish.musicsources.pl/pl/lokalizacje/galeria/rekopisy/4664 @EN{Scan on Polish Music Sources Website} @PL{Skany w portalu Dziedzictwo Muzyki Polskiej w otwartym dostępie}
!!!ONB-nifc: Nr IV, Nad wodą wielką i czystą
!!!AIN: 1 piano 1 vox
!!!key: a
**kern	**kern	**dynam	**kern	**text
*part2	*part2	*part2	*part1	*part1
*staff3	*staff2	*	*staff1	*staff1
*I"[Pianoforte]	*I"[Pianoforte]	*	*I"[Voce]	*
*Ipiano	*Ipiano	*	*Ivox	*
*ICklav	*ICklav	*	*ICvox	*
*IGacmp	*IGacmp	*	*IGsolo	*
*clefF4	*clefG2	*	*clefG2	*
*k[]	*k[]	*	*k[]	*
*a:	*a:	*	*a:	*
*M2/4	*M2/4	*	*M2/4	*
*	*	*	*	*color:grey
=1	=1	=1	=1	=1
!LO:TUP:a:problem=klamra łukowa	!	!LO:TX:a:t=P:problem=all\right, middle or left&colon; global	!	!
(12AAA\L	2r	.	2r	.
12EE\	.	.	.	.
12AAA\J	.	.	.	.
!LO:TUP:a:problem=klamra łukowa	!	!	!	!
12EE\L	.	.	.	.
12AAA\	.	.	.	.
12EE\J)	.	.	.	.
=2	=2	=2	=2	=2
*Xtuplet	*	*	*	*
12AAA\L	2r	.	2r	.
12EE\	.	.	.	.
12AAA\J	.	.	.	.
12EE\L	.	.	.	.
12AAA\	.	.	.	.
12EE\J	.	.	.	.
=3	=3	=3	=3	=3
12AAA\L	4r	.	8r	.
12EE\	.	.	.	.
.	.	.	8f#X/	Nad
12AAA\J	.	.	.	.
12EE\L	4e< 4d< 4B< 4E</	.	8g#X/	wo-
12AAA\	.	.	.	.
.	.	.	8e/	-dą
12EE\J	.	.	.	.
=4	=4	=4	=4	=4
12AAA\L	4e< 4c< 4A< 4E</	.	4a/	wiel-
12EE\	.	.	.	.
12AAA\J	.	.	.	.
12EE\L	4e< 4d< 4B< 4E</	.	8b/	-ką
12AAA\	.	.	.	.
.	.	.	8e/	i
12EE\J	.	.	.	.
=5	=5	=5	=5	=5
12AAA\L	2a 2f#X 2d#X 2c< 2A</	.	2cc\	czy-
12EE\	.	.	.	.
12E\J	.	.	.	.
12EE\L	.	.	.	.
12E\	.	.	.	.
12EE\J	.	.	.	.
=6	=6	=6	=6	=6
12E\L	4g#X 4e 4B< 4G#<X/	.	4b\	-stą
12EE\	.	.	.	.
12E\J	.	.	.	.
12EE\L	4r	.	4r	.
12E\	.	.	.	.
12EE\J	.	.	.	.
!!LO:LB:g=original
=7	=7	=7	=7	=7
12AAA\L	4r	.	8r	.
12EE\	.	.	.	.
.	.	.	8f#X/	sta-
12AAA\J	.	.	.	.
12EE\L	4e< 4d< 4B< 4E</	.	8g#X/	-ły
12AAA\	.	.	.	.
.	.	.	8e/	rzę-
12EE\J	.	.	.	.
=8	=8	=8	=8	=8
12AAA\L	4e< 4c< 4A< 4E</	.	4a/	-da-
12EE\	.	.	.	.
12AAA\J	.	.	.	.
12EE\L	4e< 4d< 4B< 4E</	.	8b/	-mi
12AAA\	.	.	.	.
.	.	.	8e/	o-
12EE\J	.	.	.	.
=9	=9	=9	=9	=9
12AAA\L	2a 2f#X 2d#X 2c< 2A</	.	2cc\	-po-
12EE\	.	.	.	.
12E\J	.	.	.	.
12EE\L	.	.	.	.
12E\	.	.	.	.
12EE\J	.	.	.	.
=10	=10	=10	=10	=10
12E\L	4g#X 4e 4B< 4G#<X/	.	4b\	-ki
12EE\	.	.	.	.
12E\J	.	.	.	.
12EE\L	4r	.	4r	.
12E\	.	.	.	.
12EE\J	.	.	.	.
=11	=11	=11	=11	=11
12AAA\L	2e< 2c< 2A< 2E</	.	8r	.
12EE\	.	.	.	.
.	.	.	8a/	I
12AAA\J	.	.	.	.
12EE\L	.	.	8b\	wo-
12AAA\	.	.	.	.
.	.	.	8cc\	-da
12EE\J	.	.	.	.
=12	=12	=12	=12	=12
12GGG\L	2g 2d 2B< 2G</	.	4dd\	to-
12GG\	.	.	.	.
12GGG\J	.	.	.	.
12GG\L	.	.	8dd\	-nią
12GGG\	.	.	.	.
.	.	.	8dd\	przej-
12GG\J	.	.	.	.
!!LO:LB:g=original
=13	=13	=13	=13	=13
12CC\L	[2g [<2e [>2c< [2G</	.	[2ee\	-rzy-
12GG\	.	.	.	.
12CC\J	.	.	.	.
12GG\L	.	.	.	.
12CC\	.	.	.	.
12GG\J	.	.	.	.
=14	=14	=14	=14	=14
12CC\L	4g] 4e] 4c<] 4G</]	.	4ee\]	.
12C\	.	.	.	.
12CC\J	.	.	.	.
12C\L	4g 4e 4G</	.	4dd\	-stą
12CC\	.	.	.	.
12C\J	.	.	.	.
=15	=15	=15	=15	=15
12FF\L	4a 4f 4A</	.	4cc\	od-
12C\	.	.	.	.
12FF\J	.	.	.	.
12BBB\L	4dd 4f 4d/	.	4dd\	-bi-
12BB\	.	.	.	.
12BBB\J	.	.	.	.
=16	=16	=16	=16	=16
12EE\L	4g#X 4e 4G#<X/	.	4b\	-ła
12BB\	.	.	.	.
12EE\J	.	.	.	.
12AAA\L	4cc 4e 4c/	.	(4cc\	kształ-
12AA\	.	.	.	.
12AAA\J	.	.	.	.
=17	=17	=17	=17	=17
12DD\L	4f 4d 4F</	.	4a/)	.
12AA\	.	.	.	.
12DD\J	.	.	.	.
12GGG\L	4b 4d 4B/	.	8b/	-ty
12GG\	.	.	.	.
.	.	.	8b/	ich
12GGG\J	.	.	.	.
=18	=18	=18	=18	=18
12CC\L	[2e [>2c [2E</	.	[>2e/	czar-
12EE\	.	.	.	.
12CC\J	.	.	.	.
12EE\L	.	.	.	.
12CC\	.	.	.	.
12EE\J	.	.	.	.
!!LO:LB:g=original
=19	=19	=19	=19	=19
12CC\L	4e] 4c] 4E</]	.	2e/_>	.
12EE\	.	.	.	.
12CC\J	.	.	.	.
12EEE\L	4b 4e 4d 4B/	.	.	.
12EE\	.	.	.	.
12EEE\J	.	.	.	.
=20	=20	=20	=20	=20
12CC\L	[2e [>2c [2E</	.	2e/_>	.
12EE\	.	.	.	.
12CC\J	.	.	.	.
12EE\L	.	.	.	.
12CC\	.	.	.	.
12EE\J	.	.	.	.
=21	=21	=21	=21	=21
12CC\L	4e] 4c] 4E</]	.	4e/]	-ne
12EE\	.	.	.	.
12CC\J	.	.	.	.
12EEE\L	4b 4e 4d 4B/	.	4r	.
12EE\	.	.	.	.
12EEE\J	.	.	.	.
=22	=22	=22	=22	=22
12CC\L	2e 2c 2E</	.	2r	.
12EE\	.	.	.	.
12CC\J	.	.	.	.
12EE\L	.	.	.	.
12CC\	.	.	.	.
12EE\J	.	.	.	.
=23	=23	=23	=23	=23
12BBB\L	4e 4d 4E</	.	2r	.
12EE\	.	.	.	.
12BBB\J	.	.	.	.
12EE\L	4r	.	.	.
12BBB\	.	.	.	.
12EE\J	.	.	.	.
=24	=24	=24	=24	=24
12AAA\L	4r	.	8r	.
12EE\	.	.	.	.
.	.	.	8f#X/	Nad
12AAA\J	.	.	.	.
12EE\L	4e< 4d< 4B< 4E</	.	8g#X/	wo-
12AAA\	.	.	.	.
.	.	.	8e/	-dą
12EE\J	.	.	.	.
!!LO:PB:g=original
=25	=25	=25	=25	=25
12AAA\L	4e< 4c< 4A< 4E</	.	4a/	.
12EE\	.	.	.	.
12AAA\J	.	.	.	.
12EE\L	4e< 4d< 4B< 4E</	.	8b/	.
12AAA\	.	.	.	.
.	.	.	8e/	.
12EE\J	.	.	.	.
=26	=26	=26	=26	=26
12AAA\L	2a 2f#X 2d#X 2c< 2A</	.	2cc\	.
12EE\	.	.	.	.
12E\J	.	.	.	.
12EE\L	.	.	.	.
12E\	.	.	.	.
12EE\J	.	.	.	.
=27	=27	=27	=27	=27
12E\L	4g#X 4e 4B< 4G#<X/	.	4b\	.
12EE\	.	.	.	.
12E\J	.	.	.	.
12EE\L	4r	.	4r	.
12E\	.	.	.	.
12EE\J	.	.	.	.
=28	=28	=28	=28	=28
12AAA\L	4r	.	8r	.
12EE\	.	.	.	.
.	.	.	8b\	.
12AAA\J	.	.	.	.
12EE\L	4a 4g 4c#<X 4A</	.	8cc#X\	.
12AAA\	.	.	.	.
.	.	.	8a/	.
12EE\J	.	.	.	.
=29	=29	=29	=29	=29
12FF\L	4a 4f 4d< 4A</	.	4dd\	.
12AAA\	.	.	.	.
12GG\J	.	.	.	.
12AAA\L	4a 4e 4c#<X 4A</	.	8ee\	.
12AA\	.	.	.	.
.	.	.	8a/	.
12AAA\J	.	.	.	.
=30	=30	=30	=30	=30
12DD\L	2a 2f 2d< 2A</	.	[2ff\	.
12AA\	.	.	.	.
12DD\J	.	.	.	.
12AA\L	.	.	.	.
12DD\	.	.	.	.
12AA\J	.	.	.	.
!!LO:LB:g=original
=31	=31	=31	=31	=31
12DD\L	4ff 4dd 4a 4f/	.	4ff\]	.
12D\	.	.	.	.
12DD\J	.	.	.	.
12D\L	4ee 4cc 4f 4e/	.	4ee\	.
12DD\	.	.	.	.
12D\J	.	.	.	.
=32	=32	=32	=32	=32
12GG\L	4dd 4b 4g 4d/	.	4dd\	.
12D\	.	.	.	.
12GG\J	.	.	.	.
12CC\L	4ee 4cc 4g 4e/	.	4ee\	.
12C\	.	.	.	.
12CC\J	.	.	.	.
=33	=33	=33	=33	=33
12FF\L	4cc 4a 4f 4c/	.	4cc\	.
12C\	.	.	.	.
12FF\J	.	.	.	.
12BBB\L	4dd 4b 4f 4d/	.	4dd\	.
12BB\	.	.	.	.
12BBB\J	.	.	.	.
=34	=34	=34	=34	=34
12EE\L	4b 4g#X 4e 4B/	.	4b/	.
12BB\	.	.	.	.
12EE\J	.	.	.	.
12AAA\L	4cc 4a 4e 4c/	.	8cc\	.
12AA\	.	.	.	.
.	.	.	8cc\	.
12AAA\J	.	.	.	.
=35	=35	=35	=35	=35
12DD#X\L	[2a [2f [2c [2A</	.	((2a/	.
12AA\	.	.	.	.
12DD#\J	.	.	.	.
12AA\L	.	.	.	.
12DD#\	.	.	.	.
12AA\J	.	.	.	.
=36	=36	=36	=36	=36
12DD#X\L	4a] 4f] 4c] 4A</]	<	4a/)	.
12AA\	.	.	.	.
12DD#\J	.	.	.	.
12EEL 12AAA^\	4cc 4a 4e 4c/	.	4cc\)	.
12AA\	.	.	.	.
12AAA\J	.	[	.	.
!!LO:LB:g=original
=37	=37	=37	=37	=37
12DD#X\L	[2a [2f [2c [2A/	.	4a/	.
12AA\	.	.	.	.
12DD#\J	.	.	.	.
12AA\L	.	.	4r	.
12DD#\	.	.	.	.
12AA\J	.	.	.	.
=38	=38	=38	=38	=38
12DD#X\L	4a] 4f] 4c] 4A/]	.	2r	.
12AA\	.	<	.	.
12DD#\J	.	.	.	.
12EEL 12AAA\	4cc 4a 4e 4c/	[	.	.
12AA\	.	.	.	.
12AAA\J	.	.	.	.
=39	=39	=39	=39	=39
12DDn\L	2b 2a 2f 2B/	.	4b/	.
12BB\	.	.	.	.
12DD\J	.	.	.	.
12BB\L	.	.	8a/	.
12DD\	.	.	.	.
.	.	.	8b/	.
12BB\J	.	.	.	.
=40	=40	=40	=40	=40
12EE\L	4b 4g#X 4e 4B/	.	4e/	.
12BB\	.	.	.	.
12EE\J	.	.	.	.
12E\L	4b 4g# 4e 4B/	.	8g#X/	.
12EE\	.	.	.	.
.	.	.	8b/	.
12E\J	.	.	.	.
=41	=41	=41	=41	=41
12AAA\L	[2a [2e [2c [2A/	.	[2a/	.
12EE\	.	.	.	.
12AAA\J	.	.	.	.
12EE\L	.	.	.	.
12AAA\	.	.	.	.
12EE\J	.	.	.	.
=42	=42	=42	=42	=42
12AAA\L	4a] 4e] 4c] 4A/]	.	2a/]	.
12EE\	.	<	.	.
12AAA\J	.	.	.	.
12EE\L	4ee 4b 4e 4d/	.	.	.
12AAA\	.	[	.	.
12EE\J	.	.	.	.
!!LO:LB:g=original
=43	=43	=43	=43	=43
12AAA\L	[2a [2e [2c [2A/	.	4a/	.
12EE\	.	.	.	.
12AAA\J	.	.	.	.
12EE\L	.	.	4r	.
12AAA\	.	.	.	.
12EE\J	.	.	.	.
=44	=44	=44	=44	=44
12AAA\L	4a] 4e] 4c] 4A/]	.	2ryy	.
12EE\	.	.	.	.
12AAA\J	.	.	.	.
12EE\L	4ee 4b 4e 4d/	.	.	.
12AAA\	.	.	.	.
12EE\J	.	.	.	.
=45	=45	=45	=45	=45
12AAA\L	2a 2e 2c 2A/	.	2ryy	.
12EE\	.	.	.	.
12AAA\J	.	<	.	.
12EE\L	.	.	.	.
12AAA\	.	.	.	.
12EE\J	.	.	.	.
=46	=46	=46	=46	=46
12AAA\L	(>2ee 2b 2e 2d/	[	2ryy	.
12EE\	.	.	.	.
12AAA\J	.	.	.	.
12EE\L	.	.	.	.
12AAA\	.	.	.	.
12EE\J	.	.	.	.
=47	=47	=47	=47	=47
12AAA\L	[2a [2e [2c [2A/)	.	2ryy	.
12EE\	.	.	.	.
12AAA\J	.	.	.	.
12EE\L	.	.	.	.
12AAA\	.	.	.	.
12EE\J	.	.	.	.
=48	=48	=48	=48	=48
12AAA\L	4a] 4e] 4c] 4A/]	.	2ryy	.
12EE\	.	.	.	.
12AAA\J	.	.	.	.
12EE\L	4r	.	.	.
12AAA\	.	.	.	.
12EE\J	.	.	.	.
!!LO:PB:g=original
=49	=49	=49	=49	=49
*8ba	*	*	*	*
4AAAA\	4r	.	4r	.
*X8ba	*	*	*	*
4e 4c 4A\	4ee 4cc 4a/	.	4a/	.
=50	=50	=50	=50	=50
4e 4c 4A\	4ee 4cc 4a/	.	([2ee\	.
4e 4c 4A\	4ee 4cc 4a/	.	.	.
=51	=51	=51	=51	=51
4e 4c 4A\	4ee 4cc 4a/	.	4ee\]	.
4e 4c 4A\	4ee 4cc 4a/	.	8dd\L	.
.	.	.	8cc\J	.
=52	=52	=52	=52	=52
4e 4d 4B 4A\	4ee 4dd 4b 4a\	.	4dd\	.
4e 4B 4A\	4ee 4dd 4b 4a\	.	8cc\L)	.
.	.	.	8b\J	.
=53	=53	=53	=53	=53
4e 4c 4A\	4ee 4cc 4a\	.	(4ee\	.
4e 4c 4A\	4ee 4cc 4a\	.	8dd\L	.
.	.	.	8cc\J	.
=54	=54	=54	=54	=54
4e 4B 4A\	4ee 4dd 4b 4a\	.	4dd\)	.
4e 4B 4A\	4ee 4dd 4b 4a\	.	8cc\L	.
.	.	.	8b\J	.
!!LO:LB:g=original
=55	=55	=55	=55	=55
4AAA/	4r	.	4r	.
4e 4c 4A\	4ee 4cc 4a\	.	4ee\	.
=56	=56	=56	=56	=56
4f#X 4e 4c 4A\	4ff#X 4ee 4cc 4a\	.	[2ee\	.
4f# 4e 4c 4A\	4ff# 4ee 4cc 4a\	.	.	.
=57	=57	=57	=57	=57
4EEE/	4r	.	4ee\]	.
4g 4e 4B\	4gg 4ee 4b\	.	4b/	.
=58	=58	=58	=58	=58
4g 4e 4B\	4gg 4ee 4b\	.	4b/	.
4g 4e 4B\	4gg 4ee 4b\	.	4r	.
=59	=59	=59	=59	=59
4EE/	4r	.	4r	.
4g 4e 4c#X 4B\	4gg 4ee 4cc#X 4b\	.	4b\	.
=60	=60	=60	=60	=60
4g 4e 4c#X 4B\	4gg 4ee 4cc#X 4b\	.	[2ee\	.
4g 4e 4c# 4B\	4gg 4ee 4cc# 4b\	.	.	.
!!LO:LB:g=original
=61	=61	=61	=61	=61
4g 4e 4c#X 4B\	4gg 4ee 4cc#X 4b\	.	4ee\]	.
4g 4e 4c# 4B\	4gg 4ee 4cc# 4b\	.	8dd\L	.
.	.	.	8cc#X\J	.
=62	=62	=62	=62	=62
4f#X 4d 4B\	4ff#X 4dd 4b\	.	(4dd\	.
4f# 4d 4B\	4ff# 4dd 4b\	.	8cc#X\L	.
.	.	.	8b\J)	.
=63	=63	=63	=63	=63
4CC#X/	4gg 4ee 4b\	.	4r	.
4g 4e 4B\	4gg 4ee 4b\	.	4b\	.
=64	=64	=64	=64	=64
!	!	!LO:DY:rj	!	!
4g 4e 4B\	4bb 4gg 4ee 4b\	ff	[2gg\	.
4g 4e 4B\	4bb 4gg 4ee 4b\	.	.	.
=65	=65	=65	=65	=65
4FF#X 4FFF#X/	4aa#X 4gg 4ee 4a#X\	.	4gg\]	.
4g 4e 4A#X\	4aa# 4gg 4ee 4a#\	.	4a#X/	.
=66	=66	=66	=66	=66
4BB 4BBB/	4bb 4ff#X 4dd 4b\	.	[>2b/	.
4f#X 4d 4B\	4ff#X 4dd 4b\	.	.	.
!!LO:LB:g=original
=67	=67	=67	=67	=67
4f#X 4d 4B\	4ff#X 4dd 4b\	.	4b/]	.
4f# 4d 4B\	4ff# 4dd 4b\	.	4b/	.
=68	=68	=68	=68	=68
4f#X 4d 4B\	4ff#X 4dd 4b\	.	2r	.
4f# 4d 4B\	4ff# 4dd 4b\	.	.	.
=69	=69	=69	=69	=69
4f#X 4d 4B\	4r	.	4r	.
4f# 4d 4B\	4b/	.	4b\	.
=70	=70	=70	=70	=70
*	*2\right	*	*2\right	*
4f#X 4d 4B\	[2ff#X\	.	[<2b\	.
4f# 4d 4B\	.	.	.	.
=71	=71	=71	=71	=71
!LO:SIC:v:n=1:s=4f#	!	!	!	!
4f 4d 4B\	4ff#\]	.	4b\]	.
!LO:SIC:v:n=1:s=4f#	!	!	!	!
4f 4d 4B\	8ee\L	.	8cc#X\L	.
.	8dd\J	.	8dd\J	.
=72	=72	=72	=72	=72
!LO:SIC:v:n=3:s=4c#	!	!	!	!
4g 4e 4c 4B\	4ee\	.	4cc#X\	.
!LO:SIC:v:n=3:s=4c#	!	!	!	!
4g 4e 4c 4B\	8dd\L	.	4a#X/	.
.	8cc#X\J	.	.	.
!!LO:PB:g=original
=73	=73	=73	=73	=73
4f#X 4d 4B\	4ff#X\	.	4b\	.
4f# 4d 4B\	8ee\L	.	8cc#X\L	.
.	8dd\J	.	8dd\J	.
=74	=74	=74	=74	=74
4g 4e 4c#X 4B\	4ee\	.	4cc#X\	.
4g 4e 4c# 4B\	8dd\L	.	4a#X/	.
.	8cc#X\J	.	.	.
=75	=75	=75	=75	=75
4f#X 4d 4B\	4ff#X 4dd 4b\	.	4r	.
4f# 4d 4B\	4ff# 4dd 4b\	.	4b\	.
=76	=76	=76	=76	=76
*	*	*	*2\left	*
4f#X 4d 4B\	4ff#X 4dd 4b\	.	[2ff#X\	.
4f# 4d 4B\	4ff# 4dd 4b\	.	.	.
=77	=77	=77	=77	=77
4f#X 4d 4B\	4ff#X 4dd 4b\	.	4ff#\]	.
4f# 4d 4B\	4ff# 4dd 4b\	.	4dd\	.
=78	=78	=78	=78	=78
4f#X 4d 4B\	4ff#X 4dd 4b\	.	4cc#X\	.
4f# 4d 4B\	4ff# 4dd 4b\	.	4b/	.
!!LO:LB:g=original
=79	=79	=79	=79	=79
4fn 4d 4B 4A\	4ffn 4dd 4b 4a\	.	4r	.
4f 4d 4B 4A\	4ff 4dd 4b 4a\	.	4a/	.
=80	=80	=80	=80	=80
4DD/	4ff 4dd 4b 4a\	.	[2dd\	.
4f 4d 4B 4A\	4ff 4dd 4b 4a\	.	.	.
=81	=81	=81	=81	=81
4f 4d 4B 4A\	4ff 4dd 4b 4a\	.	4dd\]	.
4f 4d 4B 4A\	4ff 4dd 4b 4a\	.	8cc\L	.
.	.	.	8b\J	.
=82	=82	=82	=82	=82
4e 4c 4A\	4ee 4cc 4a\	.	4cc\	.
4e 4c 4A\	4ee 4cc 4a\	.	4a/	.
=83	=83	=83	=83	=83
4e 4B 4A\	4ee 4b 4a\	.	4r	.
4e 4B 4A\	4ee 4b 4a\	.	4a/	.
=84	=84	=84	=84	=84
4EE/	4ee 4b 4a\	.	[2ee\	.
4e 4B 4A\	4ee 4b 4a\	.	.	.
!!LO:LB:g=original
=85	=85	=85	=85	=85
*	*	*	*2\right	*
4e 4B 4G#X\	4ee 4b 4g#X\	.	2ee\]	.
4e 4B 4G#\	4ee 4b 4g#\	.	.	.
=86	=86	=86	=86	=86
4EE/	4ee 4b 4g#X\	.	4g#X/	.
4e 4B 4G#X\	4ee 4b 4g#\	.	4r	.
=87	=87	=87	=87	=87
4e 4B 4A 4F#X\	4ee 4b 4a 4f#X\	.	4r	.
4e 4B 4A 4F#\	4ee 4b 4a 4f#\	.	4f#X/	.
=88	=88	=88	=88	=88
*	*	*	*2\left	*
4EE/	4ee 4b 4a 4f#X\	.	[2ee\	.
4e 4B 4A 4F#X\	4ee 4b 4a 4f#\	.	.	.
=89	=89	=89	=89	=89
4e 4B 4A 4Fn\	4ee 4b 4a 4fn\	.	2ee\]	.
4e 4B 4A 4F\	4ee 4b 4a 4f\	.	.	.
=90	=90	=90	=90	=90
4EE\	4ee 4b 4g#X 4e\	.	4e/	.
4B 4G#X 4E\	4ee 4b 4g# 4e\	.	4r	.
!!LO:LB:g=original
=91	=91	=91	=91	=91
12AAA\L	4r	.	8r	.
12EE\	.	.	.	.
.	.	.	8f#X/	.
12AAA\J	.	.	.	.
12EE\L	4e 4d 4B< 4E</	.	8g#X/	.
12AAA\	.	.	.	.
.	.	.	8e/	.
12EE\J	.	.	.	.
=92	=92	=92	=92	=92
12AAA\L	4e 4c 4A< 4E</	.	4a/	.
12EE\	.	.	.	.
12AAA\J	.	.	.	.
12EE\L	4e 4d 4B< 4E</	.	8b/	.
12AAA\	.	.	.	.
.	.	.	8e/	.
12EE\J	.	.	.	.
=93	=93	=93	=93	=93
12AAA\L	2a 2f#X 2d#X 2c< 2A</	.	2cc\	.
12EE\	.	.	.	.
12E\J	.	.	.	.
12EE\L	.	.	.	.
12E\	.	.	.	.
12EE\J	.	.	.	.
=94	=94	=94	=94	=94
12E\L	4g#X 4e 4B< 4G#<X/	.	4b\	.
12EE\	.	.	.	.
12E\J	.	.	.	.
12EE\L	4r	.	4r	.
12E\	.	.	.	.
12EE\J	.	.	.	.
=95	=95	=95	=95	=95
12AAA\L	4r	.	8r	.
12EE\	.	.	.	.
.	.	.	8f#X/	.
12AAA\J	.	.	.	.
12EE\L	4e 4d 4B< 4E</	.	8g#X/	.
12AAA\	.	.	.	.
.	.	.	8e/	.
12EE\J	.	.	.	.
=96	=96	=96	=96	=96
12AAA\L	4e 4c 4A< 4E</	.	4a/	.
12EE\	.	.	.	.
12AAA\J	.	.	.	.
12EE\L	4e 4d 4B< 4E</	.	8b/	.
12AAA\	.	.	.	.
.	.	.	8e/	.
12EE\J	.	.	.	.
!!LO:PB:g=original
=97	=97	=97	=97	=97
*	*	*	*2\right	*
12AAA\L	2a 2f#X 2d#X 2c< 2A</	.	2cc\	.
12EE\	.	.	.	.
12E\J	.	.	.	.
12EE\L	.	.	.	.
12E\	.	.	.	.
12EE\J	.	.	.	.
=98	=98	=98	=98	=98
12E\L	4g#X 4e 4B< 4G#<X/	.	4b\	.
12EE\	.	.	.	.
12E\J	.	.	.	.
12EE\L	4r	.	4r	.
12E\	.	.	.	.
12EE\J	.	.	.	.
=99	=99	=99	=99	=99
12AAA\L	2e 2c 2A< 2E</	.	8r	.
12EE\	.	.	.	.
.	.	.	8a/	.
12AAA\J	.	.	.	.
12EE\L	.	.	8b/	.
12AAA\	.	.	.	.
.	.	.	8cc\	.
12EE\J	.	.	.	.
=100	=100	=100	=100	=100
12GGG\L	2g 2d 2B< 2G</	.	8dd\	.
12GG\	.	.	.	.
.	.	.	4dd\	.
12GGG\J	.	.	.	.
12GG\L	.	.	.	.
12GGG\	.	.	.	.
.	.	.	8dd\	.
12GG\J	.	.	.	.
=101	=101	=101	=101	=101
*	*	*	*2\left	*
12CC\L	[2g [2e [2c< [2G</	.	[2ee\	.
12GG\	.	.	.	.
12CC\J	.	.	.	.
12GG\L	.	.	.	.
12CC\	.	.	.	.
12GG\J	.	.	.	.
=102	=102	=102	=102	=102
12CC\L	4g] 4e] 4c<] 4G</]	.	4ee\]	.
12C\	.	.	.	.
12CC\J	.	.	.	.
12C\L	4g 4e 4G</	.	4dd\	.
12CC\	.	.	.	.
12C\J	.	.	.	.
!!LO:LB:g=original
=103	=103	=103	=103	=103
12FF\L	4a 4f 4A/	.	4cc\	.
12C\	.	.	.	.
12FF\J	.	.	.	.
12BBB\L	4dd 4f 4d/	.	4dd\	.
12BB\	.	.	.	.
12BBB\J	.	.	.	.
=104	=104	=104	=104	=104
12EE\L	4g#X 4e 4G#X/	.	4b\	.
12BB\	.	.	.	.
12EE\J	.	.	.	.
12AAA\L	4cc 4e 4c/	.	4cc\	.
12AA\	.	.	.	.
12AAA\J	.	.	.	.
=105	=105	=105	=105	=105
12DD\L	4f 4d/	.	4a/	.
12AA\	.	.	.	.
12DD\J	.	.	.	.
12GGG\L	4b 4d/	.	8b/	.
12GG\	.	.	.	.
.	.	.	8b/	.
12GGG\J	.	.	.	.
=106	=106	=106	=106	=106
12CC\L	[2e [>2c< [2E</	.	[2e/	.
12EE\	.	.	.	.
12CC\J	.	.	.	.
12EE\L	.	.	.	.
12CC\	.	.	.	.
12EE\J	.	.	.	.
=107	=107	=107	=107	=107
12CC\L	4e] 4c<] 4E</]	.	2e/]	.
12EE\	.	.	.	.
12CC\J	.	.	.	.
12EEE\L	4b 4e 4d 4B/	.	.	.
12EE\	.	.	.	.
12EEE\J	.	.	.	.
=108	=108	=108	=108	=108
12CC\L	[2e [>2c< [2E</	.	4e/	.
12EE\	.	.	.	.
12CC\J	.	.	.	.
12EE\L	.	.	4r	.
12CC\	.	.	.	.
12EE\J	.	.	.	.
!!LO:LB:g=original
=109	=109	=109	=109	=109
12CC\L	4e] 4c<] 4E</]	.	2r	.
12EE\	.	.	.	.
12CC\J	.	.	.	.
12EEE\L	4b 4e 4d< 4B</	.	.	.
12EE\	.	.	.	.
12EEE\J	.	.	.	.
=110	=110	=110	=110	=110
12CC\L	2e 2c< 2E</	.	2ryy	.
12EE\	.	.	.	.
12CC\J	.	.	.	.
12EE\L	.	.	.	.
12CC\	.	.	.	.
12EE\J	.	.	.	.
=111	=111	=111	=111	=111
12AAA#X\L	2e 2d 2E</	.	2ryy	.
12EE\	.	.	.	.
12AAA#\J	.	.	.	.
12EE\L	.	.	.	.
12AAA#\	.	.	.	.
12EE\J	.	.	.	.
=112	=112	=112	=112	=112
12BBB\L	[2e [2d [2E</	.	2ryy	.
12EE\	.	.	.	.
12BBB\J	.	.	.	.
12EE\L	.	.	.	.
12BBB\	.	.	.	.
12EE\J	.	.	.	.
=113	=113	=113	=113	=113
12EEE\L	2e] 2d] 2E</]	.	4r	.
12EE\	.	.	.	.
12EEE\J	.	.	.	.
12EE\L	.	.	[4e/	.
12EEE\	.	.	.	.
12EE\J	.	.	.	.
=114	=114	=114	=114	=114
12EEE\L	2e 2d 2B< 2E</	.	8e/]	.
12EE\	.	.	.	.
.	.	.	8f#X/	.
12EEE\J	.	.	.	.
12EE\L	.	.	8g#X/	.
12EEE\	.	.	.	.
.	.	.	8e/	.
12EE\J	.	.	.	.
!!LO:LB:g=original
=115	=115	=115	=115	=115
12EEE\L	4e 4c 4A< 4E</	.	4a/	.
12EE\	.	.	.	.
12EEE\J	.	.	.	.
12EE\L	4e 4d 4B< 4E</	.	8b/L	.
12EEE\	.	.	.	.
.	.	.	8e/J	.
12EE\J	.	.	.	.
=116	=116	=116	=116	=116
12EEE\L	2a 2f#X 2d#X 2c< 2A</	.	2cc\	.
12EE\	.	.	.	.
12DD#X\J	.	.	.	.
12EE\L	.	.	.	.
12DD#\	.	.	.	.
12EE\J	.	.	.	.
=117	=117	=117	=117	=117
12DD#X\L	4g#X 4e 4B< 4G#<X/	.	4b\	.
12EE\	.	.	.	.
12DD#\J	.	.	.	.
12EE\L	4r	.	4r	.
12DD#\	.	.	.	.
12EE\J	.	.	.	.
=118	=118	=118	=118	=118
12AAA\L	4r	.	8r	.
12EE\	.	.	.	.
.	.	.	8b\	.
12AAA\J	.	.	.	.
12EE\L	4a 4g 4c#<X 4A</	.	8cc#X\	.
12AAA\	.	.	.	.
.	.	.	8a/	.
12EE\J	.	.	.	.
=119	=119	=119	=119	=119
12AAA\L	4a 4f 4d< 4A</	.	4dd\	.
12FF\	.	.	.	.
12AAA\J	.	.	.	.
12GG\L	4a 4e 4c#<X 4A</	.	8ee\	.
12AAA\	.	.	.	.
.	.	.	8a/	.
12GG\J	.	.	.	.
=120	=120	=120	=120	=120
12DD\L	2a 2f 2d< 2A</	.	[2ff\	.
12AA\	.	.	.	.
12GG#X\J	.	.	.	.
12AA\L	.	.	.	.
12GG#\	.	.	.	.
12AA\J	.	.	.	.
!!LO:PB:g=original
=121	=121	=121	=121	=121
!	!	!	!LO:TX:a:t=P:problem=brak zakończenia ligatury	!
12DD\L	4ff 4dd 4a 4f/	.	4ff\]	.
12D\	.	.	.	.
12C#X\J	.	.	.	.
12D\L	4ee 4cc 4f 4e/	.	4ee\	.
12C#\	.	.	.	.
12D\J	.	.	.	.
=122	=122	=122	=122	=122
12GG\L	4dd 4b 4g 4d/	.	4dd\	.
12D\	.	.	.	.
12GG\J	.	.	.	.
12CC\L	4ee 4cc 4g 4e/	.	4ee\	.
12C\	.	.	.	.
12CC\J	.	.	.	.
=123	=123	=123	=123	=123
12FF\L	4cc 4a 4f 4c/	.	4cc\	.
12C\	.	.	.	.
12FF\J	.	.	.	.
12BBB\L	4dd 4b 4f 4d/	.	4dd\	.
12BB\	.	.	.	.
12BBB\J	.	.	.	.
=124	=124	=124	=124	=124
12EE\L	4b 4g#X 4e 4B/	.	4b\	.
12BB\	.	.	.	.
12EE\J	.	.	.	.
12AAA\L	4cc 4a 4e 4c/	.	4cc\	.
12AA\	.	.	.	.
12AAA\J	.	.	.	.
=125	=125	=125	=125	=125
12DD#X\L	[2a [2f [2c [2A/	.	[2a/	.
12AA\	.	.	.	.
12DD#\J	.	.	.	.
12AA\L	.	.	.	.
12DD#\	.	.	.	.
12AA\J	.	.	.	.
=126	=126	=126	=126	=126
12DD#X\L	4a] 4f] 4c] 4A/]	.	4a/]	.
12AA\	.	.	.	.
12DD#\J	.	.	.	.
12EEL 12AAA\	4cc 4a 4e 4c/	.	4cc\	.
12AA\	.	.	.	.
12AAA\J	.	.	.	.
!!LO:LB:g=original
=127	=127	=127	=127	=127
12DD#X\L	[2a [2f [2c< [2A</	.	2a/	.
12AA\	.	.	.	.
12DD#\J	.	.	.	.
12AA\L	.	.	.	.
12DD#\	.	.	.	.
12AA\J	.	.	.	.
=128	=128	=128	=128	=128
12DD#X\L	4a] 4f] 4c<] 4A</]	.	2r	.
12AA\	.	.	.	.
12DD#\J	.	.	.	.
12EEL 12AAA\	4cc 4a 4e 4c/	.	.	.
12AA\	.	.	.	.
12AAA\J	.	.	.	.
=129	=129	=129	=129	=129
12DD\L	2b 2a 2f 2B/	.	4r	.
12AA\	.	.	.	.
12DD\J	.	.	.	.
12AA\L	.	.	4b\	.
12DD\	.	.	.	.
12AA\J	.	.	.	.
=130	=130	=130	=130	=130
12DD\L	[2b [2g#X [2e [2B/	.	[2ee\	.
12BB\	.	.	.	.
12DD\J	.	.	.	.
12BB\L	.	.	.	.
12DD\	.	.	.	.
12BB\J	.	.	.	.
=131	=131	=131	=131	=131
12DD\L	2b] 2g#] 2e] 2B/]	.	2ee\]	.
12BB\	.	.	.	.
12DD\J	.	.	.	.
12BB\L	.	.	.	.
12DD\	.	.	.	.
12BB\J	.	.	.	.
=132	=132	=132	=132	=132
12CC\L	2a 2e 2A/	.	4a/	.
12AA\	.	.	.	.
12CC\J	.	.	.	.
12AA\L	.	.	4a/	.
12CC\	.	.	.	.
12AA\J	.	.	.	.
!!LO:LB:g=original
=133	=133	=133	=133	=133
12BBB\L	[2a [2f [2d [2A/	.	([2ee\	.
12AA\	.	.	.	.
12BBB\J	.	.	.	.
12AA\L	.	.	.	.
12BBB\	.	.	.	.
12AA\J	.	.	.	.
=134	=134	=134	=134	=134
12BBB\L	2a] 2f] 2d] 2A/]	.	2ee\_	.
12AA\	.	.	.	.
12BBB\J	.	.	.	.
12AA\L	.	.	.	.
12BBB\	.	.	.	.
12AA\J	.	.	.	.
=135	=135	=135	=135	=135
12EEE\L	[2g#X [<2e [2d [2G#X/	.	2ee\]	.
12EE\	.	.	.	.
12DD#X\J	.	.	.	.
12EE\L	.	.	.	.
12DD#\	.	.	.	.
12EE\J	.	.	.	.
=136	=136	=136	=136	=136
12DD#X\L	2g#] 2e] 2d] 2G#/]	.	2g#X/)	.
12EE\	.	.	.	.
12DD#\J	.	.	.	.
12EE\L	.	.	.	.
12DD#\	.	.	.	.
12EE\J	.	.	.	.
=137	=137	=137	=137	=137
12AAA\L	2a 2e 2c 2A/	.	2a/	.
12EE\	.	.	.	.
12AAA\J	.	.	.	.
12EE\L	.	.	.	.
12AAA\	.	.	.	.
12EE\J	.	.	.	.
=138	=138	=138	=138	=138
12AAA\L	2ee 2b 2e 2d/	.	2ryy	.
12EE\	.	.	.	.
12AAA\J	.	.	.	.
12EE\L	.	.	.	.
12AAA\	.	.	.	.
12EE\J	.	.	.	.
!!LO:LB:g=original
=139	=139	=139	=139	=139
12AAA\L	2a 2e 2c 2A/	.	2ryy	.
12EE\	.	.	.	.
12AAA\J	.	.	.	.
12EE\L	.	.	.	.
12AAA\	.	.	.	.
12EE\J	.	.	.	.
=140	=140	=140	=140	=140
12AAA\L	2ee 2b 2e 2d/	.	2ryy	.
12EE\	.	.	.	.
12AAA\J	.	.	.	.
12EE\L	.	.	.	.
12AAA\	.	.	.	.
12EE\J	.	.	.	.
=141	=141	=141	=141	=141
12AAA\L	[2a [2e [2c [2A/	.	2ryy	.
12EE\	.	.	.	.
12AAA\J	.	.	.	.
12EE\L	.	.	.	.
12AAA\	.	.	.	.
12EE\J	.	.	.	.
=142	=142	=142	=142	=142
12AAA\L	2a] 2e] 2c] 2A/]	.	2ryy	.
12EE\	.	.	.	.
12AAA\J	.	.	.	.
12EE\L	.	.	.	.
12AAA\	.	.	.	.
12EE\J	.	.	.	.
=143	=143	=143	=143	=143
*8ba	*	*	*	*
[<2AAAA\	2r	.	2ryy	.
=144	=144	=144	=144	=144
2AAAA\_<	2r	.	2ryy	.
=145	=145	=145	=145	=145
*^	*	*	*	*
2A 2AA;\	2AAAA\]	2aaa 2aa;\	.	2ryy	.
*X8ba	*	*	*	*	*
*v	*v	*	*	*	*
==	==	==	==	==
*-	*-	*-	*-	*-
!!!system-decoration: <s1>{(s2,s3)}
!!!RDF**kern: > = above
!!!RDF**kern: < = below
!!!ENC: Andrzej Gręziak
!!!END: 2021-11-05
!!!ENC: Andrzej Kubiczek
!!!END: 2021-11-09
!!!YEC: Copyright 2022 Narodowy Instytut Fryderyka Chopina (https://polishscores.org)
!!!YEM: Licence CC BY 4.0 (https://creativecommons.org/licenses/by/4.0)
